X: 40068
T: Thrush In The Bush, The
R: jig
M: 6/8
K: Gmajor
D|:G2G DB,D|GBd gdB|AEE cEE|(3ABc B AGE|
DB,D G,B,D|gfg dcB|ABc dcA|1 AGF G2D:|2 AGF GDC||
|:B,DG Bdg|gfg dcB|AEE cEE|(3ABc B AGE|
DB,D G,B,D|gfg dcB|ABc dcA|1 AGF GDC:|2 AGF G2z||

